X: 1471
T: Neydin Güzelim
C: Şerif İçli
O: Turkey
F: http://compmusic.upf.edu/node/140
N: saba--sarki--senginsemai--neydin_guzelim--serif_icli
N: makam= saba
N: form= sarki
N: usul= senginsemai = 6/4
M: 6/4
L: 1/16
K: C _2/4B _3/4d  
Q: 1/4=72
%%MIDI tuningsystem comma53
G4 A4 A3G c2BA A6z2  | e3d c2B2 A2G2 A2B2 c8  | \
w:  ARANAĞME  |   | 
c3d e3d c3B A2B2 dcBA G4  | 
w:   | 
A3G c3B d3c cBBA A6z2  | G4 A4 A3G c2BA A6z2  | 
w:   |  ARANAĞME  | 
e3d c2B2 A2G2 A2B2 c8  | c3d e3d c3B A2B2 dcBA G4  | 
w:   |   | 
A3G c3B d3c cBBA A6z2  | A4 B4 c4 (3dcBBA A6z2  | 
w:   |  Ney din  gü ze *  *  *  *  lim   | 
ABAG A2B2 c2de dcBd c6z2  | cBcd e2f2 g2_7/8a2 g2f2 e2dc Bcdc  | 
w:  sen  *  *  *  *  *  gü *  *  ze *  *  *  lim   |  dün  *  *  *  *  *  ge *  ce  *  ney  | 
B4 c4 cdcB (3dcBBA A6z2  | A4 B4 c4 (3dcBBA A6z2  | 
w:  din   *  SAZ  |  Ney din  gü ze *  *  *  *  lim   | 
ABAG A2B2 c2de dcBd c6z2  | cBcd e2f2 g2_7/8a2 g2f2 e2dc Bcdc  | 
w:  sen  *  *  *  *  *  gü *  *  ze *  *  *  lim   |  dün  *  *  *  *  *  ge *  ce  *  ney  | 
B4 c4 cdcB BAAB c6z2  | c3d d2c2 d2c2 d2e2 gfed c2(3BAB  | 
w:  din   *  SAZ  |  Â *  teş  *  gi *  bi  *  â  | 
c3e d3c c3B cBBA A6z2  | A_1/4BAG ^3/4F4 c2de d2cd dc2_2/4B (3dcBBA  | 
w:  fet  *  *  *  gi *  bi  *  *  *  bir   |  kor *  *  *  *  ku *  *  lu  *  *  şey  | 
A6z2 cdcB BAAB c6z2  | c3d d2c2 d2c2 d2e2 gfed c2(3BAB  | 
w:  din   SAZ  |  Â *  teş  *  gi *  bi  *  â  | 
c3e d3c c3B cBBA A6z2  | A_1/4BAG ^3/4F4 c2de d2cd dc2_2/4B (3dcBBA  | 
w:  fet  *  *  *  gi *  bi  *  *  *  bir   |  kor *  *  *  *  ku *  *  lu  *  *  şey  | 
A6z2 e3=d dccd e8  | =d3e e4 e3d (3edc{d}cd e6z2  | 
w:  din   SAZ  |  Tâ *  kat  ko *  ma *  *  *  *  *  dın   | 
e2^2/4fg (3aag(3=fe=d dc2d cBBA A6z2  | \
w:  sen  *  *  *  *  *  *  *  *  be *  *  ni  *  *  *  bir   | 
cBcd e2f2 g2_7/8a2 g2f2 e2dc Bcdc  | 
w:  yay  *  *  *  *  *  gi *  bi  *  eğ  | 
B4 c4 =deed dccd e8  | =d3e e4 e3d (3edc{d}cd e6z2  | 
w:  din   *  SAZ  |  Tâ *  kat  ko *  ma *  *  *  *  *  dın   | 
e2^2/4fg (3aag(3=fe=d dc2d cBBA A6z2  | \
w:  sen  *  *  *  *  *  *  *  *  be *  *  ni  *  *  *  bir   | 
cBcd e2f2 g2_7/8a2 g2f2 e2dc Bcdc  | 
w:  yay  *  *  *  *  *  gi *  bi  *  eğ  | 
B4 c4 cdcB BAAB c6z2  | c3d d2c2 d2c2 d2e2 gfed c2(3BAB  | 
w:  din   *  SAZ  |  Â *  teş  *  gi *  bi  *  â  | 
c3e d3c c3B cBBA A6z2  | A_1/4BAG ^3/4F4 c2de d2cd dc2_2/4B (3dcBBA  | 
w:  fet  *  *  *  gi *  bi  *  *  *  bir   |  kor *  *  *  *  ku *  *  lu  *  *  şey  | 
A6z2 cdcB BAAB c6z2  | c3d d2c2 d2c2 d2e2 gfed c2(3BAB  | 
w:  din   SAZ  |  Â *  teş  *  gi *  bi  *  â  | 
c3e d3c c3B cBBA A6z2  | A_1/4BAG ^3/4F4 c2de d2cd dc2_2/4B (3dcBBA  | 
w:  fet  *  *  *  gi *  bi  *  *  *  bir   |  kor *  *  *  *  ku *  *  lu  *  *  şey  | 
A6|
w:  din    | 


